X: 1200
T: Kamer Çehre Peri Rû Tende
C: Hacı Ârif Bey
O: Turkey
F: http://compmusic.upf.edu/node/140
N: hicaz-uzzal--sarki--musemmen--kamer_cehre--haci_arif_bey
N: makam= hicaz-uzzal
N: form= sarki
N: usul= musemmen = 8/8
M: 8/8
L: 1/16
K: C _7/8B ^f ^c 
Q: 1/4=120
%%MIDI tuningsystem comma53
d2d2 e2e8z2  | e2f2 g2e2 =f2e2 d2c2  | \
w:  Ka mer  *  çeh  |  re  *  *  *  *  *  *  pe  | 
ded2 e2e8z2  | d4 a2g2 a2g2 f2fe  | 
w:  ri  *  *  *  rû   |  ten de  ca  | 
e6z4z6  | g2a4a2 g2f2 e4  | fef2 g2=f3ed4z2  | \
w:  nım    |  Ni gâ rım   |  dil *  *  be rim   | 
c2d8{a}g2 f2e2  | 
w:  ruh_  | 
d4 e2d2 c2=Bc B2c2  | d6z4z6  | d2e2 f2g2 a2=f2 e2d2  | \
w:  i  re va  |  nım    |  Ni gâ rım   | 
c3B BAA8z2  | 
w:  dil *  be *  rim   | 
a6ag fedc BAG2  | A2B2 d2c2 B2A2 G2BA  | \
w:  ruh_  |  i  *  re va  | 
A4 =b=c'ba aga6  | 
w:  nım   SAZ  | 
=b2b2 {c'}baa8g2  | a2=b2 {c'}baa8z2  | \
w:  E ni *  *  *  sim  |  sin  *  *  be *  nim   | 
a2g2 f2e2 d2=b2 a2b2  | g2f2 a2g2 f2ag f2fe  | 
w:  yâr_  |  ı  *  ve fa *  da  | 
e4 =b=c'ba aga6  | =b2b2 {c'}baa8g2  | \
w:  rım  SAZ  |  E ni *  *  *  sim  | 
a2=b2 {c'}baa8z2  | a2g2 f2e2 d2=b2 a2b2  | 
w:  sin  *  *  be *  nim   |  yâr_  | 
g2f2 a2g2 f2ag f2fe  | e6z4z6  | g2a4a2 g2f2 e4  | \
w:  ı  *  ve fa *  da  |  rım   |  Ni gâ rım   | 
fef2 g2=f3ed4z2  | 
w:  dil *  *  be rim   | 
c2d8{a}g2 f2e2  | d4 e2d2 c2=Bc B2c2  | \
w:  ruh_  |  i  re va  | 
d6z4z6  | d2e2 f2g2 a2=f2 e2d2  | 
w:  nım    |  Ni gâ rım   | 
c3B BAA8z2  | a6ag fedc BAG2  | A2B2 d2c2 B2A2 G2BA  | 
w:  dil *  be *  rim   |  ruh_  |  i  *  re va  | 
A4 |
w:  nım    | 


